X:1
T:Title
%%score { ( 1 4 ) | ( 2 3 ) }
L:1/8
M:4/4
K:G
V:1 treble nm="Grand Piano"
V:4 treble 
V:2 bass 
V:3 bass 
V:1
 z4 z2 z[Q:1/4=100] D | G2 G2 G3 A | Bcde d B2 G | [FA]2 [GA]2 [FA]3 [=F^G] | %4
 [FA][GB][Ac][GB] [FA]3 [D,CD] | [G,B,DG]2 [G,B,DG]2 [G,B,DG]3 [CDA] |[M:7/8] Bcd ed B2 | %7
[M:1/8] G |[M:4/4] [EA]2 [EB]2 [Ec][Ec][EB][EA] |[M:7/8] [DG]2 [DF]2 [B,DG]3 |[M:1/8] B | %11
[M:4/4] d3 e d3 B | [Bd][Ac][Ac][^GB] [Ac] [FA]2 [=GB] | [Ac]3 [Bd] [Ac]3 [Ece] | %14
 [Ece][DBd][DBd][^C_B^c] [D=Bd]3 B | d3 e d3 B |[M:17/16] dGABcd[Ge]3/2[Ge] |[M:4/4] d2 ^c2 d3 G | %18
[M:7/8] [GB][GB][CFA] [CFA] [B,DG]3 |] %19
V:2
 z4 z2 z [G,B,] | [G,B,D]2 [G,B,D]2 [G,B,D]3 [G,CD] | %2
 [G,DG][G,A,G][G,B,G][G,CG] [G,B,G] [G,DG]2[K:bass] [G,B,] | [D,D]2 [E,^C]2 [D,D]3 [D,D] | %4
 z4 [D,D]4 | G,,2 G,,2 G,,3 G,, |[M:7/8][K:treble] [G,DG][G,A,G][G,B,G] [G,CG][G,B,G] [G,DG]2 | %7
[M:1/8][K:bass] [G,B,D] |[M:4/4] [C,A,]2 [B,,^G,]2 [A,,A,][A,,A,][B,,G,][C,A,] | %9
[M:7/8] [D,B,]2 [D,C]2 [G,,G,]3 |[M:1/8][K:treble] [G,DG] | %11
[M:4/4] [G,B,G]3 [G,CG] [G,B,G]3 [G,DG] | D,D,D,D, D, D,2 D, | D,3 D, D,3 D, | %14
 G,G,G,G, G,3[K:treble] [G,DG] | [G,B,G]3 [G,CG] [G,B,G]3 [G,DG] | %16
[M:17/16] [G,B,G][K:bass][G,B,D][F,CD][=F,D][E,C][D,B,][C,C]3/2[C,C] | %17
[M:4/4][K:treble] [G,B,G]2 [G,_B,G]2 [G,=B,G]3[K:bass] [E,B,] |[M:7/8] [D,D][D,D]D, D, G,,3 |] %19
V:3
 x8 | x8 | x7[K:bass] x | x8 | [D,D][D,D][D,D][D,D] z C,B,,A,, | x8 |[M:7/8][K:treble] x7 | %7
[M:1/8][K:bass] x |[M:4/4] x8 |[M:7/8] x7 |[M:1/8][K:treble] x |[M:4/4] x8 | x8 | x8 | %14
 x7[K:treble] x | x8 |[M:17/16] x[K:bass] x15/2 |[M:4/4][K:treble] x7[K:bass] x |[M:7/8] x7 |] %19
V:4
 x8 | x8 | x8 | x8 | x8 | x8 |[M:7/8] x7 |[M:1/8] x |[M:4/4] x8 |[M:7/8] x7 |[M:1/8] x | %11
[M:4/4] x8 | D8- | D8 | x8 | x8 |[M:17/16] z/ z/ z/ z/ z/ z/ z G-<G z/ z/ z/ z |[M:4/4] x8 | %18
[M:7/8] x7 |] %19

